StripePaymentSheet/StripePaymentSheet/Resources/StripePaymentSheet.xcassets/Carousel/carousel_card_unionpay.imageset/unionPayDark.svg

<svg fill="none" height="40" viewBox="0 0 56 40" width="56" xmlns="http://www.w3.org/2000/svg" xmlns:xlink="http://www.w3.org/1999/xlink"><clipPath id="a"><path d="m9 8h38v23.7704h-38z"/></clipPath><g clip-path="url(#a)" fill="#fefefe"><path d="m25.9529 19.4945c.0707-.007.1385-.0313.1976-.0707s.1076-.0927.1412-.1552c.139-.1852.2406-.6212.2632-.7375.1254-.5286.105-.8572-.1762-.8572-.358 0-.4981.4416-.6178.9679-.0448.1708-.0695.3463-.0734.5229.0034.3298.227.3298.2654.3298z"/><path d="m44.1963 9h-27.1465c-1.2559 0-2.5107 1.0221-2.8032 2.2803l-4.1856 17.961c-.28687 1.2548.4902 2.278 1.7461 2.278h27.1397c1.2559 0 2.513-1.0232 2.8078-2.278l4.1788-17.9576c.2993-1.2616-.4812-2.2837-1.7371-2.2837zm-6.4128 8.0414c.1645.0605.3038.1747.3953.3242 0-.0418.0102-.0836.0158-.1265l.0418-.0339c.5422-.0768.6924-.0994 1.2559-.2033l.017.0463c-.1039.428-.2044.8538-.3061 1.283-.2067.8968-.2823 1.3553-.3614 1.8206l-.0497.0373c-.5455 0-.7025 0-1.2062.0169l-.0316-.0406c.0158-.0644.0327-.1277.0497-.1909-.1647.1537-.3747.25-.5986.2744-.2149.0121-.4297-.0266-.6268-.1129-.7003-.2733-.5873-1.0391-.4891-1.4581.0983-.419.2575-.8493.5997-1.1667.4812-.4427 1.047-.5647 1.2943-.4698zm-1.2864-1.8296c.1246.1833.1864.402.1762.6234-.0012.1648-.0217.3289-.061.489-.1155.5583-.4282 1.0563-.8809 1.4028-.6517.4788-1.4818.4788-2.2182.4788h-.0779c-.0406.028-.0762.0628-.105.1028-.0113.026-.1796.733-.1796.733s-.1988.9634-.2327 1.1294c-.1468-.0158-.4969-.0158-1.3496 0l.8764-3.6141.3501-1.6252s.026-.1265.0396-.1977c.1603.0204.5522.0237 1.5292.0113h.3772c.7624-.0101 1.4242-.0011 1.7562.4665zm-8.3915 3.8129c.1504-.6161.2636-1.2407.3388-1.8703l.0407-.0283c.5218-.0745.6505-.0892 1.2164-.2044l.0429.0531-.0813.3151c.0937-.0576.1886-.113.2835-.1638.2272-.1077.4747-.1658.7262-.1705.136-.004.271.0255.393.0858.1108.0575.1968.1535.2417.2699.105.2564.0339.5647-.1129 1.1893l-.0712.3162c-.148.689-.1694.8155-.2496 1.2887l-.0542.0407c-.1988 0-.3388 0-.4811 0-.1807 0-.3592.009-.6574.0248l-.0192-.0406c.0452-.2022.096-.3999.1435-.6032l.061-.2755c.0872-.3549.1555-.7142.2044-1.0764.0102-.0903.0418-.3185-.218-.3185-.1196.0136-.235.052-.3388.113-.061.2259-.192.8662-.2553 1.1576-.1265.6133-.1366.6845-.1931.9871l-.0406.0407c-.4642-.0068-.6246-.0068-1.1611.0215l-.0237-.0463c.0915-.3761.1807-.7398.2654-1.1091zm.4518 2.8833-.2135.715h-1.6037l-.174.1502c-.0756.0723-.1016.0429-.1988.0948-.1626.0862-.3433.1327-.5274.1356h-.515l.2078-.6856h.1547c.0905.008.1815-.0059.2655-.0406.0738-.0611.1326-.1384.1716-.2259l.2971-.5365h1.1666l-.2055.3897zm-11.0773-2.1165c-.4021.2451-.995.3795-1.6286.3795-.4913 0-1.3553-.079-1.6636-.611-.1006-.1872-.15-.3975-.1435-.6099l.113-.8188.0564-.2507.6687-2.9546s.0316-.1626.0406-.1908c.0147.0203.2406.0316 1.5146.0203-.0019.0134-.0049.0266-.0091.0395-.1129.3467-.7714 2.9681-.7714 2.9681l-.1231.7838v.1322c.0396.3862.279.5895.6878.5895.2413.0069.4771-.0733.6641-.2259.331-.2676.4292-.6776.5647-1.2649 0 0 .6246-2.8789.6585-3.0381.087.0203.3603.0305 1.2841.0203-.0059.0125-.0101.0258-.0124.0395-.1129.3547-.7906 3.0765-.7906 3.0765l-.0757.2937c-.1569.567-.3388 1.2107-1.0345 1.6218zm4.7435-1.2943-.0722.3163c-.1446.6889-.1683.8154-.2496 1.2886l-.0531.0407c-.4518-.0079-.6122-.0079-1.1396.0214l-.0203-.0406c.0451-.2022.0948-.3998.1411-.6031l.0644-.2756c.0971-.4269.1931-.9239.2044-1.0763.0079-.0802.0339-.2677-.1411-.3095-.0255-.0062-.0517-.0092-.078-.009-.1195.0136-.2349.0521-.3388.1129-.0632.2259-.192.8663-.253 1.1577-.131.6132-.1389.6844-.1976.9871l-.0384.0406c-.4653-.0079-.628-.0079-1.1633.0215l-.0237-.0463c.0892-.3637.1784-.7319.2631-1.0967.1516-.6158.2647-1.2404.3388-1.8703l.0441-.0282c.5229-.0746.6494-.0892 1.2152-.2044l.0475.053-.087.3151c.096-.0576.1875-.1129.2846-.1637.0568-.0277.1153-.0518.1751-.0723.1775-.0612.3634-.0943.5511-.0983.2485 0 .5196.0689.6336.3558.0994.2507.0283.5647-.1129 1.1836zm1.8941-.2021c-.0497.2179-.1028.4314-.1503.6449-.1016.4517-.1423.6256-.166.7488-.0237.1231-.0305.1784-.07.4133l-.026.0215-.0237.0192c-.2722 0-.4518-.0079-.6189 0-.1672.0079-.3388.0101-.5896.0214l-.0135-.0214-.0158-.0237c.0378-.151.0845-.2996.14-.445.0544-.1471.0974-.2982.1288-.4518.079-.3456.1287-.5873.1603-.7996.0317-.2123.0565-.3795.0848-.5817l.0203-.0158.0214-.0192c.2711-.0372.4428-.0632.619-.0915.1761-.0282.3569-.0587.6381-.1129l.0101.0237.0079.026c-.0553.2123-.1095.4269-.1569.6438zm.0587-.925c-.2982.2089-.7477.253-.9984.1061-.2507-.1468-.2259-.4416.0802-.6449.306-.2033.7488-.2552 1.004-.105.2553.1502.2101.4348-.0892.6438zm.4009 1.2423c.096-.4167.2564-.8527.6031-1.1734.4823-.445 1.1001-.471 1.3553-.471.4315 0 .8471.0971 1.082.3987.1559.1965.279.5218.1209 1.2164-.0486.2089-.1898.7183-.4959 1.0605-.3975.4212-.9261.5647-1.4422.5647-.2492.0053-.4972-.0348-.7319-.1186-.7047-.2824-.5929-1.0481-.4992-1.4739zm2.4554 8.2549h-1.3237c-.1014-.0012-.2023-.0149-.3004-.0407-.044-.0091-.0855-.0275-.1217-.054-.0363-.0265-.0664-.0604-.0884-.0996-.0393-.0392-.0668-.0887-.0794-.1428-.0125-.0541-.0097-.1107.0083-.1632l.3794-1.2537h-.6505l.2157-.7172h.6528l.1739-.5839h-.6516l.2078-.6776h2.8653l-.2123.6776h-1.1441l-.1785.5839h1.1724l-.2146.7048h-1.1712l-.2846.9532c-.0339.1051.2789.1186.3919.1186l.585-.0802zm.7194-.0779c-.07-.0633-.1796-.148-.1773-.2327.0212-.1318.0514-.262.0903-.3896l1.4016-4.6476h1.0007l-.1457.5037c.1664-.1321.3466-.2457.5376-.3388.2358-.0687.4762-.1204.7194-.1547l1.6196-.0102-.5489 1.8376c-.0575.2165-.1486.4227-.2699.611-.0666.1072-.1611.1942-.2733.2519-.1156.066-.243.1089-.375.1264-.1073.008-.271.0102-.4992.0136h-1.5665l-.4393 1.4524c-.0418.1446-.061.2146-.0339.2541.0173.023.0399.0416.0658.0541.0259.0126.0545.0188.0833.0182l.6776-.0644-.236.7974h-.759c-.2451 0-.4235 0-.5478-.0147-.1242-.0147-.2428-.0011-.3275-.0643zm4.1404-1.8624c-.0224.1262-.085.2419-.1784.3298-.0719.0667-.1567.118-.2491.1509-.0925.0328-.1906.0464-.2885.0399l-.5557.0226v.4992c-.0068.1401.0316.1265.0542.1491.0207.0199.0453.0353.0723.0452l.1762-.0102.5308-.0294-.2202.7285h-.6088c-.4269 0-.7431-.0102-.8459-.0915s-.1129-.1468-.1129-.2868l.0384-1.946h.9633l-.0135.3987h.2394c.0574.0054.1151-.0048.1672-.0294.0333-.0249.0566-.061.0655-.1016l.0971-.3106h.7646zm3.4029 1.9346h-1.0424l.0712-.2315h-2.12l.2112-.6923h.2158l1.1102-3.6808.2259-.742h1.0627l-.1129.3738c.1688-.1188.3552-.2107.5523-.2721.2259-.0599 1.3191-.087 1.6862-.0949h1.1362l.0113.4224c-.0079.0723.0542.1062.1863.1062h.2259l-.2101.6979h-.6087c-.5297.0373-.7319-.1908-.7183-.4517l-.0113-.4145-.113.3727h-.3636l-1.0956 3.6254h.2959l-.2258.7477h-.2926zm4.6995-3.2188h-1.1429l-.1774.5647h1.1419l-.1909.6212h-1.2333l-.2191.2609h.5014l.122.7827c.0016.0564.0151.1118.0396.1626.0838.0322.1734.0464.2631.0418h.1525l-.2259.768h-.3863c-.0587 0-.1479 0-.271-.009-.0984-.0182-.1918-.0566-.2745-.113-.0521-.025-.0976-.062-.1327-.1079-.0352-.0459-.0589-.0995-.0694-.1564l-.1209-.7815-.5647.7691c-.0898.1363-.2131.2473-.358.3225-.1449.0751-.3067.1118-.4698.1067h-.785l.2056-.6776h.3004c.0793-.0024.1569-.0241.2259-.0633.069-.0269.1273-.0757.166-.1389l.8188-1.1531h-1.082l.1864-.6212h1.2367l.1751-.5647h-1.2288l.2078-.7014h3.3972zm.7183-2.1605-.0463.053h.0068l-.4393.7522c-.0774.1441-.1942.2632-.3369.3432-.1426.0801-.3051.1177-.4684.1086l-.698-.0124.2033-.6777h.1367c.0548.0044.1099-.0033.1615-.0226.0382-.0165.0699-.0451.0903-.0813l.2474-.3908c.3512-.5274.4382-.7555.8019-1.3553-.0644-.6776-.0949-.8911-.148-1.3327-.0316-.2631-.0734-.5319-.105-.7985-.0253-.2725-.0649-.5436-.1186-.812v-.0079c.0016-.0198.0046-.0394.009-.0587l.0418-.0384c.5399-.0689.5534-.087 1.1384-.1999l.0486.0497.0779 1.5021v.0847c.3106-.6924.2993-.5026.6777-1.3836v.0091c.0026-.0077.0045-.0157.0056-.0237l.0384-.0384c.5128-.0689.6133-.087 1.1712-.1999l.043.0497s-2.2476 3.849-2.5424 4.4848z"/><path d="m34.8098 22.2604-.2812.9261c.1587-.072.3212-.1353.4867-.1897.1431-.0322.2885-.0526.4349-.061l.2044-.6777z"/><path d="m33.7109 25.8937h.8471l.2428-.8131h-.8437z"/><path d="m37.2594 19.5442c.0836-.0039.1656-.0247.2409-.0612.0754-.0365.1425-.0879.1973-.1511.0565-.0827.1013-.1728.1333-.2677.0373-.1525.0768-.3049.1129-.4585.0249-.1062.0452-.2.0644-.2892.0249-.3569-.0948-.5647-.3219-.5647-.3591 0-.498.4371-.6189.9532-.0445.1683-.0691.3411-.0734.5151.0079.3241.2248.3241.2654.3241z"/><path d="m34.0972 24.6096c.1602-.0821.3254-.1542.4947-.2157.1739-.0396.4393-.0735.4393-.0735l.2055-.6776h-.8481z"/><path d="m33.9548 15.5235v.0632l-.0124.0825-.3705 1.6128-.0146.0813h.2021c.3117 0 .6144-.0102.8617-.1344.1561-.0806.2921-.195.3982-.3349s.1796-.3018.2151-.4738c.087-.3941-.0373-.6968-.3388-.8143l-.7906-.0666z"/><path d="m30.5078 22.6919c.1243-.0237.9035-.0158.9035-.0158l.1198-.3931h-1.6535l-.1423.4732-.0971.3242.0271-.0226c.2464-.1896.5358-.3153.8425-.3659z"/><path d="m30.8671 23.7095c.072-.0078.1447-.0078.2168 0l.1051-.3276h-1.6411l-.1005.331h1.4197z"/></g></svg>

<svg width="56" height="40" viewBox="0 0 56 40" fill="none" xmlns="http://www.w3.org/2000/svg">
<g clip-path="url(#clip0_34_473)">
<path d="M25.9529 19.4945C26.0236 19.4875 26.0914 19.4632 26.1505 19.4238C26.2096 19.3844 26.2581 19.3311 26.2917 19.2686C26.4307 19.0834 26.5323 18.6474 26.5549 18.5311C26.6803 18.0025 26.6599 17.6739 26.3787 17.6739C26.0207 17.6739 25.8806 18.1155 25.7609 18.6418C25.7161 18.8126 25.6914 18.9881 25.6875 19.1647C25.6909 19.4945 25.9145 19.4945 25.9529 19.4945Z" fill="#FEFEFE"/>
<path d="M44.1963 9H17.0498C15.7939 9 14.5391 10.0221 14.2466 11.2803L10.061 29.2413C9.77413 30.4961 10.5512 31.5193 11.8071 31.5193H38.9468C40.2027 31.5193 41.4598 30.4961 41.7546 29.2413L45.9334 11.2837C46.2327 10.0221 45.4522 9 44.1963 9ZM37.7835 17.0414C37.948 17.1019 38.0873 17.2161 38.1788 17.3656C38.1788 17.3238 38.189 17.282 38.1946 17.2391L38.2364 17.2052C38.7786 17.1284 38.9288 17.1058 39.4923 17.0019L39.5093 17.0482C39.4054 17.4762 39.3049 17.902 39.2032 18.3312C38.9965 19.228 38.9209 19.6865 38.8418 20.1518L38.7921 20.1891C38.2466 20.1891 38.0896 20.1891 37.5859 20.206L37.5543 20.1654C37.5701 20.101 37.587 20.0377 37.604 19.9745C37.4393 20.1282 37.2293 20.2245 37.0054 20.2489C36.7905 20.261 36.5757 20.2223 36.3786 20.136C35.6783 19.8627 35.7913 19.0969 35.8895 18.6779C35.9878 18.2589 36.147 17.8286 36.4892 17.5112C36.9704 17.0685 37.5362 16.9465 37.7835 17.0414ZM36.4971 15.2118C36.6217 15.3951 36.6835 15.6138 36.6733 15.8352C36.6721 16 36.6516 16.1641 36.6123 16.3242C36.4968 16.8825 36.1841 17.3805 35.7314 17.727C35.0797 18.2058 34.2496 18.2058 33.5132 18.2058H33.4353C33.3947 18.2338 33.3591 18.2686 33.3303 18.3086C33.319 18.3346 33.1507 19.0416 33.1507 19.0416C33.1507 19.0416 32.9519 20.005 32.918 20.171C32.7712 20.1552 32.4211 20.1552 31.5684 20.171L32.4448 16.5569L32.7949 14.9317C32.7949 14.9317 32.8209 14.8052 32.8345 14.734C32.9948 14.7544 33.3867 14.7577 34.3637 14.7453H34.7409C35.5033 14.7352 36.1651 14.7442 36.4971 15.2118ZM28.1056 19.0247C28.256 18.4086 28.3692 17.784 28.4444 17.1544L28.4851 17.1261C29.0069 17.0516 29.1356 17.0369 29.7015 16.9217L29.7444 16.9748L29.6631 17.2899C29.7568 17.2323 29.8517 17.1769 29.9466 17.1261C30.1738 17.0184 30.4213 16.9603 30.6728 16.9556C30.8088 16.9516 30.9438 16.9811 31.0658 17.0414C31.1766 17.0989 31.2626 17.1949 31.3075 17.3113C31.4125 17.5677 31.3414 17.876 31.1946 18.5006L31.1234 18.8168C30.9754 19.5058 30.954 19.6323 30.8738 20.1055L30.8196 20.1462C30.6208 20.1462 30.4808 20.1462 30.3385 20.1462C30.1578 20.1462 29.9793 20.1552 29.6811 20.171L29.6619 20.1304C29.7071 19.9282 29.7579 19.7305 29.8054 19.5272L29.8664 19.2517C29.9536 18.8968 30.0219 18.5375 30.0708 18.1753C30.081 18.085 30.1126 17.8568 29.8528 17.8568C29.7332 17.8704 29.6178 17.9088 29.514 17.9698C29.453 18.1957 29.322 18.836 29.2587 19.1274C29.1322 19.7407 29.1221 19.8119 29.0656 20.1145L29.025 20.1552C28.5608 20.1484 28.4004 20.1484 27.8639 20.1767L27.8402 20.1304C27.9317 19.7543 28.0209 19.3906 28.1056 19.0213V19.0247ZM28.5574 21.908L28.3439 22.623H26.7402L26.5662 22.7732C26.4906 22.8455 26.4646 22.8161 26.3674 22.868C26.2048 22.9542 26.0241 23.0007 25.84 23.0036H25.325L25.5328 22.318H25.6875C25.778 22.326 25.869 22.3121 25.953 22.2774C26.0268 22.2163 26.0856 22.139 26.1246 22.0515L26.4217 21.515H27.5883L27.3828 21.9047L28.5574 21.908ZM17.4801 19.7915C17.078 20.0366 16.4851 20.171 15.8515 20.171C15.3602 20.171 14.4962 20.092 14.1879 19.56C14.0873 19.3728 14.0379 19.1625 14.0444 18.9501L14.1574 18.1313L14.2138 17.8806L14.8825 14.926C14.8825 14.926 14.9141 14.7634 14.9231 14.7352C14.9378 14.7555 15.1637 14.7668 16.4377 14.7555C16.4358 14.7689 16.4328 14.7821 16.4286 14.795C16.3157 15.1417 15.6572 17.7631 15.6572 17.7631L15.5341 18.5469V18.6791C15.5737 19.0653 15.8131 19.2686 16.2219 19.2686C16.4632 19.2755 16.699 19.1953 16.886 19.0427C17.217 18.7751 17.3152 18.3651 17.4507 17.7778C17.4507 17.7778 18.0753 14.8989 18.1092 14.7397C18.1962 14.76 18.4695 14.7702 19.3933 14.76C19.3874 14.7725 19.3832 14.7858 19.3809 14.7995C19.268 15.1542 18.5903 17.876 18.5903 17.876L18.5146 18.1697C18.3577 18.7367 18.1758 19.3804 17.4801 19.7915ZM22.2236 18.4972L22.1514 18.8135C22.0068 19.5024 21.9831 19.6289 21.9018 20.1021L21.8487 20.1428C21.3969 20.1349 21.2365 20.1349 20.7091 20.1642L20.6888 20.1236C20.7339 19.9214 20.7836 19.7238 20.8299 19.5205L20.8943 19.2449C20.9914 18.818 21.0874 18.321 21.0987 18.1686C21.1066 18.0884 21.1326 17.9009 20.9576 17.8591C20.9321 17.8529 20.9059 17.8499 20.8796 17.8501C20.7601 17.8637 20.6447 17.9022 20.5408 17.963C20.4776 18.1889 20.3488 18.8293 20.2878 19.1207C20.1568 19.7339 20.1489 19.8051 20.0902 20.1078L20.0518 20.1484C19.5865 20.1405 19.4238 20.1405 18.8885 20.1699L18.8648 20.1236C18.954 19.7599 19.0432 19.3917 19.1279 19.0269C19.2795 18.4111 19.3926 17.7865 19.4667 17.1566L19.5108 17.1284C20.0337 17.0538 20.1602 17.0392 20.726 16.924L20.7735 16.977L20.6865 17.2921C20.7825 17.2345 20.874 17.1792 20.9711 17.1284C21.0279 17.1007 21.0864 17.0766 21.1462 17.0561C21.3237 16.9949 21.5096 16.9618 21.6973 16.9578C21.9458 16.9578 22.2169 17.0267 22.3309 17.3136C22.4303 17.5643 22.3592 17.8783 22.218 18.4972H22.2236ZM24.1177 18.2951C24.068 18.513 24.0149 18.7265 23.9674 18.94C23.8658 19.3917 23.8251 19.5656 23.8014 19.6888C23.7777 19.8119 23.7709 19.8672 23.7314 20.1021L23.7054 20.1236L23.6817 20.1428C23.4095 20.1428 23.2299 20.1349 23.0628 20.1428C22.8956 20.1507 22.724 20.1529 22.4732 20.1642L22.4597 20.1428L22.4439 20.1191C22.4817 19.9681 22.5284 19.8195 22.5839 19.6741C22.6383 19.527 22.6813 19.3759 22.7127 19.2223C22.7917 18.8767 22.8414 18.635 22.873 18.4227C22.9047 18.2104 22.9295 18.0432 22.9578 17.841L22.9781 17.8252L22.9995 17.806C23.2706 17.7688 23.4423 17.7428 23.6185 17.7145C23.7946 17.6863 23.9754 17.6558 24.2566 17.6016L24.2667 17.6253L24.2746 17.6513C24.2193 17.8636 24.1651 18.0782 24.1177 18.2951ZM24.1764 17.3701C23.8782 17.579 23.4287 17.6231 23.178 17.4762C22.9273 17.3294 22.9521 17.0346 23.2582 16.8313C23.5642 16.628 24.007 16.5761 24.2622 16.7263C24.5175 16.8765 24.4723 17.1611 24.173 17.3701H24.1764ZM24.5773 18.6124C24.6733 18.1957 24.8337 17.7597 25.1804 17.439C25.6627 16.994 26.2805 16.968 26.5357 16.968C26.9672 16.968 27.3828 17.0651 27.6177 17.3667C27.7736 17.5632 27.8967 17.8885 27.7386 18.5831C27.69 18.792 27.5488 19.3014 27.2427 19.6436C26.8452 20.0648 26.3166 20.2083 25.8005 20.2083C25.5513 20.2136 25.3033 20.1735 25.0686 20.0897C24.3639 19.8073 24.4757 19.0416 24.5694 18.6158L24.5773 18.6124ZM27.0327 26.8673H25.709C25.6076 26.8661 25.5067 26.8524 25.4086 26.8266C25.3646 26.8175 25.3231 26.7991 25.2869 26.7726C25.2506 26.7461 25.2205 26.7122 25.1985 26.673C25.1592 26.6338 25.1317 26.5843 25.1191 26.5302C25.1066 26.4761 25.1094 26.4195 25.1274 26.367L25.5068 25.1133H24.8563L25.072 24.3961H25.7248L25.8987 23.8122H25.2471L25.4549 23.1346H28.3202L28.1079 23.8122H26.9638L26.7853 24.3961H27.9577L27.7431 25.1009H26.5719L26.2873 26.0541C26.2534 26.1592 26.5662 26.1727 26.6792 26.1727L27.2642 26.0925L27.0327 26.8673ZM27.7521 26.7894C27.6821 26.7261 27.5725 26.6414 27.5748 26.5567C27.596 26.4249 27.6262 26.2947 27.6651 26.1671L29.0667 21.5195H30.0674L29.9217 22.0232C30.0881 21.8911 30.2683 21.7775 30.4593 21.6844C30.6951 21.6157 30.9355 21.564 31.1787 21.5297L32.7983 21.5195L32.2494 23.3571C32.1919 23.5736 32.1008 23.7798 31.9795 23.9681C31.9129 24.0753 31.8184 24.1623 31.7062 24.22C31.5906 24.286 31.4632 24.3289 31.3312 24.3464C31.2239 24.3544 31.0602 24.3566 30.832 24.36H29.2655L28.8262 25.8124C28.7844 25.957 28.7652 26.027 28.7923 26.0665C28.8096 26.0895 28.8322 26.1081 28.8581 26.1206C28.884 26.1332 28.9126 26.1394 28.9414 26.1388L29.619 26.0744L29.383 26.8718H28.624C28.3789 26.8718 28.2005 26.8718 28.0762 26.8571C27.952 26.8424 27.8334 26.856 27.7487 26.7928L27.7521 26.7894ZM31.8925 24.927C31.8701 25.0532 31.8075 25.1689 31.7141 25.2568C31.6422 25.3235 31.5574 25.3748 31.465 25.4077C31.3725 25.4405 31.2744 25.4541 31.1765 25.4476L30.6208 25.4702V25.9694C30.614 26.1095 30.6524 26.0959 30.675 26.1185C30.6957 26.1384 30.7203 26.1538 30.7473 26.1637L30.9235 26.1535L31.4543 26.1241L31.2341 26.8526H30.6253C30.1984 26.8526 29.8822 26.8424 29.7794 26.7611C29.6766 26.6798 29.6665 26.6143 29.6665 26.4743L29.7049 24.5283H30.6682L30.6547 24.927H30.8941C30.9515 24.9324 31.0092 24.9222 31.0613 24.8976C31.0946 24.8727 31.1179 24.8366 31.1268 24.796L31.2239 24.4854H31.9885L31.8925 24.927ZM35.2954 26.8616H34.253L34.3242 26.6301H32.2042L32.4154 25.9378H32.6312L33.7414 22.257L33.9673 21.515H35.03L34.9171 21.8888C35.0859 21.77 35.2723 21.6781 35.4694 21.6167C35.6953 21.5568 36.7885 21.5297 37.1556 21.5218H38.2918L38.3031 21.9442C38.2952 22.0165 38.3573 22.0504 38.4894 22.0504H38.7153L38.5052 22.7483H37.8965C37.3668 22.7856 37.1646 22.5575 37.1782 22.2966L37.1669 21.8821L37.0539 22.2548H36.6903L35.5947 25.8802H35.8906L35.6648 26.6279H35.3722L35.2954 26.8616ZM39.9949 23.6428H38.852L38.6746 24.2075H39.8165L39.6256 24.8287H38.3923L38.1732 25.0896H38.6746L38.7966 25.8723C38.7982 25.9287 38.8117 25.9841 38.8362 26.0349C38.92 26.0671 39.0096 26.0813 39.0993 26.0767H39.2518L39.0259 26.8447H38.6396C38.5809 26.8447 38.4917 26.8447 38.3686 26.8357C38.2702 26.8175 38.1768 26.7791 38.0941 26.7227C38.042 26.6977 37.9965 26.6607 37.9614 26.6148C37.9262 26.5689 37.9025 26.5153 37.892 26.4584L37.7711 25.6769L37.2064 26.446C37.1166 26.5823 36.9933 26.6933 36.8484 26.7685C36.7035 26.8436 36.5417 26.8803 36.3786 26.8752H35.5936L35.7992 26.1976H36.0996C36.1789 26.1952 36.2565 26.1735 36.3255 26.1343C36.3945 26.1074 36.4528 26.0586 36.4915 25.9954L37.3103 24.8423H36.2283L36.4147 24.2211H37.6514L37.8265 23.6564H36.5977L36.8055 22.955H40.2027L39.9949 23.6428ZM40.7132 21.4823L40.6669 21.5353H40.6737L40.2344 22.2875C40.157 22.4316 40.0402 22.5507 39.8975 22.6307C39.7549 22.7108 39.5924 22.7484 39.4291 22.7393L38.7311 22.7269L38.9344 22.0492H39.0711C39.1259 22.0536 39.181 22.0459 39.2326 22.0266C39.2708 22.0101 39.3025 21.9815 39.3229 21.9453L39.5703 21.5545C39.9215 21.0271 40.0085 20.799 40.3722 20.1992C40.3078 19.5216 40.2773 19.3081 40.2242 18.8665C40.1926 18.6034 40.1508 18.3346 40.1192 18.068C40.0939 17.7955 40.0543 17.5244 40.0006 17.256V17.2481C40.0022 17.2283 40.0052 17.2087 40.0096 17.1894L40.0514 17.151C40.5913 17.0821 40.6048 17.064 41.1898 16.9511L41.2384 17.0008L41.3163 18.5029C41.3163 18.5368 41.3163 18.556 41.3163 18.5876C41.6269 17.8952 41.6156 18.085 41.994 17.204V17.2131C41.9966 17.2054 41.9985 17.1974 41.9996 17.1894L42.038 17.151C42.5508 17.0821 42.6513 17.064 43.2092 16.9511L43.2522 17.0008C43.2522 17.0008 41.0046 20.8498 40.7098 21.4856L40.7132 21.4823Z" fill="#FEFEFE"/>
<path d="M34.8098 22.2604L34.5286 23.1865C34.6873 23.1145 34.8498 23.0512 35.0153 22.9968C35.1584 22.9646 35.3038 22.9442 35.4502 22.9358L35.6546 22.2581L34.8098 22.2604Z" fill="#FEFEFE"/>
<path d="M33.7109 25.8937H34.558L34.8008 25.0806H33.9571L33.7109 25.8937Z" fill="#FEFEFE"/>
<path d="M37.2594 19.5442C37.343 19.5403 37.425 19.5195 37.5003 19.483C37.5757 19.4465 37.6428 19.3951 37.6976 19.3319C37.7541 19.2492 37.7989 19.1591 37.8309 19.0642C37.8682 18.9117 37.9077 18.7593 37.9438 18.6057C37.9687 18.4995 37.989 18.4057 38.0082 18.3165C38.0331 17.9596 37.9134 17.7518 37.6863 17.7518C37.3272 17.7518 37.1883 18.1889 37.0674 18.705C37.0229 18.8733 36.9983 19.0461 36.994 19.2201C37.0019 19.5442 37.2188 19.5442 37.2594 19.5442Z" fill="#FEFEFE"/>
<path d="M34.0972 24.6096C34.2574 24.5275 34.4226 24.4554 34.5919 24.3939C34.7658 24.3543 35.0312 24.3204 35.0312 24.3204L35.2367 23.6428H34.3886L34.0972 24.6096Z" fill="#FEFEFE"/>
<path d="M33.9548 15.5235V15.5867L33.9424 15.6692L33.5719 17.282L33.5573 17.3633H33.7594C34.0711 17.3633 34.3738 17.3531 34.6211 17.2289C34.7772 17.1483 34.9132 17.0339 35.0193 16.894C35.1254 16.7541 35.1989 16.5922 35.2344 16.4202C35.3214 16.0261 35.1971 15.7234 34.8956 15.6059L34.105 15.5393L33.9548 15.5235Z" fill="#FEFEFE"/>
<path d="M30.5078 22.6919C30.6321 22.6682 31.4113 22.6761 31.4113 22.6761L31.5311 22.283H29.8776L29.7353 22.7562L29.6382 23.0804L29.6653 23.0578C29.9117 22.8682 30.2011 22.7425 30.5078 22.6919V22.6919Z" fill="#FEFEFE"/>
<path d="M30.8671 23.7095C30.9391 23.7017 31.0118 23.7017 31.0839 23.7095L31.189 23.3819H29.5479L29.4474 23.7129H30.8671V23.7095Z" fill="#FEFEFE"/>
</g>
<defs>
<clipPath id="clip0_34_473">
<rect width="38" height="23.7704" fill="white" transform="translate(9 8)"/>
</clipPath>
</defs>
</svg>
